images/icons/linkedin.svg

<?xml version="1.0" encoding="utf-8"?>
<!-- Generator: Adobe Illustrator 24.1.2, SVG Export Plug-In . SVG Version: 6.00 Build 0)  -->
<svg version="1.1" id="Слой_1" xmlns="http://www.w3.org/2000/svg" xmlns:xlink="http://www.w3.org/1999/xlink" x="0px" y="0px"
	 viewBox="0 0 32 32" style="enable-background:new 0 0 32 32;" xml:space="preserve">
<style type="text/css">
	.st0{fill-rule:evenodd;clip-rule:evenodd;fill:#444A34;}
</style>
<path class="st0" d="M0,16C0,7.2,7.2,0,16,0c8.8,0,16,7.2,16,16c0,8.8-7.2,16-16,16C7.2,32,0,24.8,0,16z M8.2,13.3V24h3.4V13.3H8.2z
	 M8,9.9c0,1.1,0.8,1.9,1.9,1.9s1.9-0.8,1.9-1.9S11,8,9.9,8C8.9,8,8,8.8,8,9.9z M20.6,24h3.2v-6.6c0-3.3-2-4.4-3.9-4.4
	c-1.7,0-2.9,1.1-3.2,1.8v-1.5h-3.2V24h3.4v-5.7c0-1.5,1-2.3,2-2.3s1.7,0.5,1.7,2.2V24z"/>
</svg>

<svg width="32" height="32" viewBox="0 0 32 32" fill="none" xmlns="http://www.w3.org/2000/svg">
<path fill-rule="evenodd" clip-rule="evenodd" d="M0 16C0 7.16344 7.16344 0 16 0C24.8366 0 32 7.16344 32 16C32 24.8366 24.8366 32 16 32C7.16344 32 0 24.8366 0 16ZM8.2 13.3V24H11.6V13.3H8.2ZM8 9.9C8 11 8.8 11.8 9.9 11.8C11 11.8 11.8 11 11.8 9.9C11.8 8.8 11 8 9.9 8C8.9 8 8 8.8 8 9.9ZM20.6 24H23.8V17.4C23.8 14.1 21.8 13 19.9 13C18.2 13 17 14.1 16.7 14.8V13.3H13.5V24H16.9V18.3C16.9 16.8 17.9 16 18.9 16C19.9 16 20.6 16.5 20.6 18.2V24Z" fill="black"/>
</svg>
